content/blogs/regnskap/hva-er-hovedbok/digital-hovedbok-system.svg

<svg xmlns="http://www.w3.org/2000/svg" width="800" height="600" viewBox="0 0 800 600"><path fill="#f8f9fa" d="M0 0h800v600H0z"/><text x="400" y="40" fill="#2c3e50" font-family="Arial, sans-serif" font-size="24" font-weight="bold" text-anchor="middle">
    Digital Hovedbok System
  </text><rect width="200" height="120" x="300" y="150" fill="#3498db" stroke="#2980b9" stroke-width="3" rx="10"/><text x="400" y="185" fill="#fff" font-family="Arial, sans-serif" font-size="18" font-weight="bold" text-anchor="middle">
    ERP SYSTEM
  </text><text x="400" y="205" fill="#fff" font-family="Arial, sans-serif" font-size="14" text-anchor="middle">
    Digital Hovedbok
  </text><text x="400" y="225" fill="#fff" font-family="Arial, sans-serif" font-size="12" text-anchor="middle">
    • Sanntids oppdatering
  </text><text x="400" y="240" fill="#fff" font-family="Arial, sans-serif" font-size="12" text-anchor="middle">
    • Automatisk postering
  </text><text x="400" y="255" fill="#fff" font-family="Arial, sans-serif" font-size="12" text-anchor="middle">
    • Integrert rapportering
  </text><rect width="120" height="70" x="50" y="80" fill="#e74c3c" stroke="#c0392b" stroke-width="2" rx="5"/><text x="110" y="110" fill="#fff" font-family="Arial, sans-serif" font-size="12" font-weight="bold" text-anchor="middle">
    Fakturasystem
  </text><text x="110" y="125" fill="#fff" font-family="Arial, sans-serif" font-size="10" text-anchor="middle">
    E-faktura
  </text><text x="110" y="138" fill="#fff" font-family="Arial, sans-serif" font-size="10" text-anchor="middle">
    OCR-scanning
  </text><rect width="120" height="70" x="50" y="170" fill="#e74c3c" stroke="#c0392b" stroke-width="2" rx="5"/><text x="110" y="200" fill="#fff" font-family="Arial, sans-serif" font-size="12" font-weight="bold" text-anchor="middle">
    Banksystem
  </text><text x="110" y="215" fill="#fff" font-family="Arial, sans-serif" font-size="10" text-anchor="middle">
    Automatisk import
  </text><text x="110" y="228" fill="#fff" font-family="Arial, sans-serif" font-size="10" text-anchor="middle">
    Kontoutskrifter
  </text><rect width="120" height="70" x="50" y="260" fill="#e74c3c" stroke="#c0392b" stroke-width="2" rx="5"/><text x="110" y="290" fill="#fff" font-family="Arial, sans-serif" font-size="12" font-weight="bold" text-anchor="middle">
    Lønnssystem
  </text><text x="110" y="305" fill="#fff" font-family="Arial, sans-serif" font-size="10" text-anchor="middle">
    Automatisk
  </text><text x="110" y="318" fill="#fff" font-family="Arial, sans-serif" font-size="10" text-anchor="middle">
    lønnspostering
  </text><rect width="120" height="70" x="50" y="350" fill="#e74c3c" stroke="#c0392b" stroke-width="2" rx="5"/><text x="110" y="380" fill="#fff" font-family="Arial, sans-serif" font-size="12" font-weight="bold" text-anchor="middle">
    Kassasystem
  </text><text x="110" y="395" fill="#fff" font-family="Arial, sans-serif" font-size="10" text-anchor="middle">
    POS-integrasjon
  </text><text x="110" y="408" fill="#fff" font-family="Arial, sans-serif" font-size="10" text-anchor="middle">
    Sanntids salg
  </text><path fill="none" stroke="#2c3e50" stroke-width="2" marker-end="url(#a)" d="m170 115 125 65"/><path fill="none" stroke="#2c3e50" stroke-width="2" marker-end="url(#a)" d="m170 205 125-5"/><path fill="none" stroke="#2c3e50" stroke-width="2" marker-end="url(#a)" d="m170 295 125-75"/><path fill="none" stroke="#2c3e50" stroke-width="2" marker-end="url(#a)" d="m170 385 125-145"/><rect width="120" height="70" x="630" y="80" fill="#27ae60" stroke="#229954" stroke-width="2" rx="5"/><text x="690" y="110" fill="#fff" font-family="Arial, sans-serif" font-size="12" font-weight="bold" text-anchor="middle">
    Rapporter
  </text><text x="690" y="125" fill="#fff" font-family="Arial, sans-serif" font-size="10" text-anchor="middle">
    Sanntids
  </text><text x="690" y="138" fill="#fff" font-family="Arial, sans-serif" font-size="10" text-anchor="middle">
    dashboards
  </text><rect width="120" height="70" x="630" y="170" fill="#27ae60" stroke="#229954" stroke-width="2" rx="5"/><text x="690" y="200" fill="#fff" font-family="Arial, sans-serif" font-size="12" font-weight="bold" text-anchor="middle">
    Analyse
  </text><text x="690" y="215" fill="#fff" font-family="Arial, sans-serif" font-size="10" text-anchor="middle">
    Business
  </text><text x="690" y="228" fill="#fff" font-family="Arial, sans-serif" font-size="10" text-anchor="middle">
    Intelligence
  </text><rect width="120" height="70" x="630" y="260" fill="#27ae60" stroke="#229954" stroke-width="2" rx="5"/><text x="690" y="290" fill="#fff" font-family="Arial, sans-serif" font-size="12" font-weight="bold" text-anchor="middle">
    Compliance
  </text><text x="690" y="305" fill="#fff" font-family="Arial, sans-serif" font-size="10" text-anchor="middle">
    Automatisk
  </text><text x="690" y="318" fill="#fff" font-family="Arial, sans-serif" font-size="10" text-anchor="middle">
    rapportering
  </text><rect width="120" height="70" x="630" y="350" fill="#27ae60" stroke="#229954" stroke-width="2" rx="5"/><text x="690" y="380" fill="#fff" font-family="Arial, sans-serif" font-size="12" font-weight="bold" text-anchor="middle">
    API
  </text><text x="690" y="395" fill="#fff" font-family="Arial, sans-serif" font-size="10" text-anchor="middle">
    Tredjepartsapp
  </text><text x="690" y="408" fill="#fff" font-family="Arial, sans-serif" font-size="10" text-anchor="middle">
    integrasjoner
  </text><path fill="none" stroke="#2c3e50" stroke-width="2" marker-end="url(#a)" d="m505 180 120-65"/><path fill="none" stroke="#2c3e50" stroke-width="2" marker-end="url(#a)" d="m505 200 120 5"/><path fill="none" stroke="#2c3e50" stroke-width="2" marker-end="url(#a)" d="m505 220 120 75"/><path fill="none" stroke="#2c3e50" stroke-width="2" marker-end="url(#a)" d="m505 240 120 145"/><ellipse cx="400" cy="80" fill="#ecf0f1" stroke="#bdc3c7" stroke-width="2" rx="100" ry="30"/><text x="400" y="85" fill="#2c3e50" font-family="Arial, sans-serif" font-size="14" font-weight="bold" text-anchor="middle">
    CLOUD INFRASTRUKTUR
  </text><path fill="none" stroke="#95a5a6" stroke-dasharray="5,5" stroke-width="2" d="M400 110v35"/><rect width="700" height="120" x="50" y="450" fill="#fff" stroke="#bdc3c7" stroke-width="2" rx="10"/><text x="400" y="480" fill="#2c3e50" font-family="Arial, sans-serif" font-size="18" font-weight="bold" text-anchor="middle">
    Nøkkelfunksjoner i Digital Hovedbok
  </text><rect width="140" height="50" x="70" y="500" fill="#3498db" fill-opacity=".1" stroke="#3498db" rx="5"/><text x="140" y="520" fill="#2c3e50" font-family="Arial, sans-serif" font-size="12" font-weight="bold" text-anchor="middle">
    Automatisering
  </text><text x="140" y="535" fill="#2c3e50" font-family="Arial, sans-serif" font-size="10" text-anchor="middle">
    AI-drevet kategorisering
  </text><rect width="140" height="50" x="230" y="500" fill="#e74c3c" fill-opacity=".1" stroke="#e74c3c" rx="5"/><text x="300" y="520" fill="#2c3e50" font-family="Arial, sans-serif" font-size="12" font-weight="bold" text-anchor="middle">
    Sanntid
  </text><text x="300" y="535" fill="#2c3e50" font-family="Arial, sans-serif" font-size="10" text-anchor="middle">
    Live oppdateringer
  </text><rect width="140" height="50" x="390" y="500" fill="#27ae60" fill-opacity=".1" stroke="#27ae60" rx="5"/><text x="460" y="520" fill="#2c3e50" font-family="Arial, sans-serif" font-size="12" font-weight="bold" text-anchor="middle">
    Mobilitet
  </text><text x="460" y="535" fill="#2c3e50" font-family="Arial, sans-serif" font-size="10" text-anchor="middle">
    Tilgang overalt
  </text><rect width="140" height="50" x="550" y="500" fill="#f39c12" fill-opacity=".1" stroke="#f39c12" rx="5"/><text x="620" y="520" fill="#2c3e50" font-family="Arial, sans-serif" font-size="12" font-weight="bold" text-anchor="middle">
    Sikkerhet
  </text><text x="620" y="535" fill="#2c3e50" font-family="Arial, sans-serif" font-size="10" text-anchor="middle">
    Kryptering &amp; backup
  </text><rect width="400" height="120" x="200" y="300" fill="#f8f9fa" stroke="#dee2e6" stroke-width="2" rx="10"/><text x="400" y="325" fill="#2c3e50" font-family="Arial, sans-serif" font-size="16" font-weight="bold" text-anchor="middle">
    Fremtidige Teknologier
  </text><rect width="80" height="60" x="220" y="340" fill="#9b59b6" fill-opacity=".2" stroke="#9b59b6" rx="5"/><text x="260" y="365" fill="#2c3e50" font-family="Arial, sans-serif" font-size="11" font-weight="bold" text-anchor="middle">
    AI &amp; ML
  </text><text x="260" y="380" fill="#2c3e50" font-family="Arial, sans-serif" font-size="9" text-anchor="middle">
    Prediktiv
  </text><text x="260" y="392" fill="#2c3e50" font-family="Arial, sans-serif" font-size="9" text-anchor="middle">
    analyse
  </text><rect width="80" height="60" x="320" y="340" fill="#1abc9c" fill-opacity=".2" stroke="#1abc9c" rx="5"/><text x="360" y="365" fill="#2c3e50" font-family="Arial, sans-serif" font-size="11" font-weight="bold" text-anchor="middle">
    Blockchain
  </text><text x="360" y="380" fill="#2c3e50" font-family="Arial, sans-serif" font-size="9" text-anchor="middle">
    Uforanderlig
  </text><text x="360" y="392" fill="#2c3e50" font-family="Arial, sans-serif" font-size="9" text-anchor="middle">
    historikk
  </text><rect width="80" height="60" x="420" y="340" fill="#e67e22" fill-opacity=".2" stroke="#e67e22" rx="5"/><text x="460" y="365" fill="#2c3e50" font-family="Arial, sans-serif" font-size="11" font-weight="bold" text-anchor="middle">
    IoT
  </text><text x="460" y="380" fill="#2c3e50" font-family="Arial, sans-serif" font-size="9" text-anchor="middle">
    Automatisk
  </text><text x="460" y="392" fill="#2c3e50" font-family="Arial, sans-serif" font-size="9" text-anchor="middle">
    datainnsamling
  </text><rect width="80" height="60" x="520" y="340" fill="#34495e" fill-opacity=".2" stroke="#34495e" rx="5"/><text x="560" y="365" fill="#2c3e50" font-family="Arial, sans-serif" font-size="11" font-weight="bold" text-anchor="middle">
    RPA
  </text><text x="560" y="380" fill="#2c3e50" font-family="Arial, sans-serif" font-size="9" text-anchor="middle">
    Prosess-
  </text><text x="560" y="392" fill="#2c3e50" font-family="Arial, sans-serif" font-size="9" text-anchor="middle">
    automatisering
  </text><defs><marker id="a" markerHeight="7" markerWidth="10" orient="auto" refX="9" refY="3.5"><path fill="#2c3e50" d="m0 0 10 3.5L0 7z"/></marker></defs></svg>

<svg width="800" height="600" viewBox="0 0 800 600" xmlns="http://www.w3.org/2000/svg">

  <rect width="800" height="600" fill="#f8f9fa"/>
  

  <text x="400" y="40" text-anchor="middle" font-family="Arial, sans-serif" font-size="24" font-weight="bold" fill="#2c3e50">
    Digital Hovedbok System
  </text>
  

  <rect x="300" y="150" width="200" height="120" fill="#3498db" stroke="#2980b9" stroke-width="3" rx="10"/>
  <text x="400" y="185" text-anchor="middle" font-family="Arial, sans-serif" font-size="18" font-weight="bold" fill="white">
    ERP SYSTEM
  </text>
  <text x="400" y="205" text-anchor="middle" font-family="Arial, sans-serif" font-size="14" fill="white">
    Digital Hovedbok
  </text>
  <text x="400" y="225" text-anchor="middle" font-family="Arial, sans-serif" font-size="12" fill="white">
    • Sanntids oppdatering
  </text>
  <text x="400" y="240" text-anchor="middle" font-family="Arial, sans-serif" font-size="12" fill="white">
    • Automatisk postering
  </text>
  <text x="400" y="255" text-anchor="middle" font-family="Arial, sans-serif" font-size="12" fill="white">
    • Integrert rapportering
  </text>
  

  <rect x="50" y="80" width="120" height="70" fill="#e74c3c" stroke="#c0392b" stroke-width="2" rx="5"/>
  <text x="110" y="110" text-anchor="middle" font-family="Arial, sans-serif" font-size="12" font-weight="bold" fill="white">
    Fakturasystem
  </text>
  <text x="110" y="125" text-anchor="middle" font-family="Arial, sans-serif" font-size="10" fill="white">
    E-faktura
  </text>
  <text x="110" y="138" text-anchor="middle" font-family="Arial, sans-serif" font-size="10" fill="white">
    OCR-scanning
  </text>
  
  <rect x="50" y="170" width="120" height="70" fill="#e74c3c" stroke="#c0392b" stroke-width="2" rx="5"/>
  <text x="110" y="200" text-anchor="middle" font-family="Arial, sans-serif" font-size="12" font-weight="bold" fill="white">
    Banksystem
  </text>
  <text x="110" y="215" text-anchor="middle" font-family="Arial, sans-serif" font-size="10" fill="white">
    Automatisk import
  </text>
  <text x="110" y="228" text-anchor="middle" font-family="Arial, sans-serif" font-size="10" fill="white">
    Kontoutskrifter
  </text>
  
  <rect x="50" y="260" width="120" height="70" fill="#e74c3c" stroke="#c0392b" stroke-width="2" rx="5"/>
  <text x="110" y="290" text-anchor="middle" font-family="Arial, sans-serif" font-size="12" font-weight="bold" fill="white">
    Lønnssystem
  </text>
  <text x="110" y="305" text-anchor="middle" font-family="Arial, sans-serif" font-size="10" fill="white">
    Automatisk
  </text>
  <text x="110" y="318" text-anchor="middle" font-family="Arial, sans-serif" font-size="10" fill="white">
    lønnspostering
  </text>
  
  <rect x="50" y="350" width="120" height="70" fill="#e74c3c" stroke="#c0392b" stroke-width="2" rx="5"/>
  <text x="110" y="380" text-anchor="middle" font-family="Arial, sans-serif" font-size="12" font-weight="bold" fill="white">
    Kassasystem
  </text>
  <text x="110" y="395" text-anchor="middle" font-family="Arial, sans-serif" font-size="10" fill="white">
    POS-integrasjon
  </text>
  <text x="110" y="408" text-anchor="middle" font-family="Arial, sans-serif" font-size="10" fill="white">
    Sanntids salg
  </text>
  

  <path d="M 170 115 L 295 180" stroke="#2c3e50" stroke-width="2" fill="none" marker-end="url(#arrowhead)"/>
  <path d="M 170 205 L 295 200" stroke="#2c3e50" stroke-width="2" fill="none" marker-end="url(#arrowhead)"/>
  <path d="M 170 295 L 295 220" stroke="#2c3e50" stroke-width="2" fill="none" marker-end="url(#arrowhead)"/>
  <path d="M 170 385 L 295 240" stroke="#2c3e50" stroke-width="2" fill="none" marker-end="url(#arrowhead)"/>
  

  <rect x="630" y="80" width="120" height="70" fill="#27ae60" stroke="#229954" stroke-width="2" rx="5"/>
  <text x="690" y="110" text-anchor="middle" font-family="Arial, sans-serif" font-size="12" font-weight="bold" fill="white">
    Rapporter
  </text>
  <text x="690" y="125" text-anchor="middle" font-family="Arial, sans-serif" font-size="10" fill="white">
    Sanntids
  </text>
  <text x="690" y="138" text-anchor="middle" font-family="Arial, sans-serif" font-size="10" fill="white">
    dashboards
  </text>
  
  <rect x="630" y="170" width="120" height="70" fill="#27ae60" stroke="#229954" stroke-width="2" rx="5"/>
  <text x="690" y="200" text-anchor="middle" font-family="Arial, sans-serif" font-size="12" font-weight="bold" fill="white">
    Analyse
  </text>
  <text x="690" y="215" text-anchor="middle" font-family="Arial, sans-serif" font-size="10" fill="white">
    Business
  </text>
  <text x="690" y="228" text-anchor="middle" font-family="Arial, sans-serif" font-size="10" fill="white">
    Intelligence
  </text>
  
  <rect x="630" y="260" width="120" height="70" fill="#27ae60" stroke="#229954" stroke-width="2" rx="5"/>
  <text x="690" y="290" text-anchor="middle" font-family="Arial, sans-serif" font-size="12" font-weight="bold" fill="white">
    Compliance
  </text>
  <text x="690" y="305" text-anchor="middle" font-family="Arial, sans-serif" font-size="10" fill="white">
    Automatisk
  </text>
  <text x="690" y="318" text-anchor="middle" font-family="Arial, sans-serif" font-size="10" fill="white">
    rapportering
  </text>
  
  <rect x="630" y="350" width="120" height="70" fill="#27ae60" stroke="#229954" stroke-width="2" rx="5"/>
  <text x="690" y="380" text-anchor="middle" font-family="Arial, sans-serif" font-size="12" font-weight="bold" fill="white">
    API
  </text>
  <text x="690" y="395" text-anchor="middle" font-family="Arial, sans-serif" font-size="10" fill="white">
    Tredjepartsapp
  </text>
  <text x="690" y="408" text-anchor="middle" font-family="Arial, sans-serif" font-size="10" fill="white">
    integrasjoner
  </text>
  

  <path d="M 505 180 L 625 115" stroke="#2c3e50" stroke-width="2" fill="none" marker-end="url(#arrowhead)"/>
  <path d="M 505 200 L 625 205" stroke="#2c3e50" stroke-width="2" fill="none" marker-end="url(#arrowhead)"/>
  <path d="M 505 220 L 625 295" stroke="#2c3e50" stroke-width="2" fill="none" marker-end="url(#arrowhead)"/>
  <path d="M 505 240 L 625 385" stroke="#2c3e50" stroke-width="2" fill="none" marker-end="url(#arrowhead)"/>
  

  <ellipse cx="400" cy="80" rx="100" ry="30" fill="#ecf0f1" stroke="#bdc3c7" stroke-width="2"/>
  <text x="400" y="85" text-anchor="middle" font-family="Arial, sans-serif" font-size="14" font-weight="bold" fill="#2c3e50">
    CLOUD INFRASTRUKTUR
  </text>
  

  <path d="M 400 110 L 400 145" stroke="#95a5a6" stroke-width="2" fill="none" stroke-dasharray="5,5"/>
  

  <rect x="50" y="450" width="700" height="120" fill="#ffffff" stroke="#bdc3c7" stroke-width="2" rx="10"/>
  <text x="400" y="480" text-anchor="middle" font-family="Arial, sans-serif" font-size="18" font-weight="bold" fill="#2c3e50">
    Nøkkelfunksjoner i Digital Hovedbok
  </text>
  

  <rect x="70" y="500" width="140" height="50" fill="#3498db" fill-opacity="0.1" stroke="#3498db" stroke-width="1" rx="5"/>
  <text x="140" y="520" text-anchor="middle" font-family="Arial, sans-serif" font-size="12" font-weight="bold" fill="#2c3e50">
    Automatisering
  </text>
  <text x="140" y="535" text-anchor="middle" font-family="Arial, sans-serif" font-size="10" fill="#2c3e50">
    AI-drevet kategorisering
  </text>
  
  <rect x="230" y="500" width="140" height="50" fill="#e74c3c" fill-opacity="0.1" stroke="#e74c3c" stroke-width="1" rx="5"/>
  <text x="300" y="520" text-anchor="middle" font-family="Arial, sans-serif" font-size="12" font-weight="bold" fill="#2c3e50">
    Sanntid
  </text>
  <text x="300" y="535" text-anchor="middle" font-family="Arial, sans-serif" font-size="10" fill="#2c3e50">
    Live oppdateringer
  </text>
  
  <rect x="390" y="500" width="140" height="50" fill="#27ae60" fill-opacity="0.1" stroke="#27ae60" stroke-width="1" rx="5"/>
  <text x="460" y="520" text-anchor="middle" font-family="Arial, sans-serif" font-size="12" font-weight="bold" fill="#2c3e50">
    Mobilitet
  </text>
  <text x="460" y="535" text-anchor="middle" font-family="Arial, sans-serif" font-size="10" fill="#2c3e50">
    Tilgang overalt
  </text>
  
  <rect x="550" y="500" width="140" height="50" fill="#f39c12" fill-opacity="0.1" stroke="#f39c12" stroke-width="1" rx="5"/>
  <text x="620" y="520" text-anchor="middle" font-family="Arial, sans-serif" font-size="12" font-weight="bold" fill="#2c3e50">
    Sikkerhet
  </text>
  <text x="620" y="535" text-anchor="middle" font-family="Arial, sans-serif" font-size="10" fill="#2c3e50">
    Kryptering &amp; backup
  </text>
  

  <rect x="200" y="300" width="400" height="120" fill="#f8f9fa" stroke="#dee2e6" stroke-width="2" rx="10"/>
  <text x="400" y="325" text-anchor="middle" font-family="Arial, sans-serif" font-size="16" font-weight="bold" fill="#2c3e50">
    Fremtidige Teknologier
  </text>
  

  <rect x="220" y="340" width="80" height="60" fill="#9b59b6" fill-opacity="0.2" stroke="#9b59b6" stroke-width="1" rx="5"/>
  <text x="260" y="365" text-anchor="middle" font-family="Arial, sans-serif" font-size="11" font-weight="bold" fill="#2c3e50">
    AI &amp; ML
  </text>
  <text x="260" y="380" text-anchor="middle" font-family="Arial, sans-serif" font-size="9" fill="#2c3e50">
    Prediktiv
  </text>
  <text x="260" y="392" text-anchor="middle" font-family="Arial, sans-serif" font-size="9" fill="#2c3e50">
    analyse
  </text>
  

  <rect x="320" y="340" width="80" height="60" fill="#1abc9c" fill-opacity="0.2" stroke="#1abc9c" stroke-width="1" rx="5"/>
  <text x="360" y="365" text-anchor="middle" font-family="Arial, sans-serif" font-size="11" font-weight="bold" fill="#2c3e50">
    Blockchain
  </text>
  <text x="360" y="380" text-anchor="middle" font-family="Arial, sans-serif" font-size="9" fill="#2c3e50">
    Uforanderlig
  </text>
  <text x="360" y="392" text-anchor="middle" font-family="Arial, sans-serif" font-size="9" fill="#2c3e50">
    historikk
  </text>
  

  <rect x="420" y="340" width="80" height="60" fill="#e67e22" fill-opacity="0.2" stroke="#e67e22" stroke-width="1" rx="5"/>
  <text x="460" y="365" text-anchor="middle" font-family="Arial, sans-serif" font-size="11" font-weight="bold" fill="#2c3e50">
    IoT
  </text>
  <text x="460" y="380" text-anchor="middle" font-family="Arial, sans-serif" font-size="9" fill="#2c3e50">
    Automatisk
  </text>
  <text x="460" y="392" text-anchor="middle" font-family="Arial, sans-serif" font-size="9" fill="#2c3e50">
    datainnsamling
  </text>
  

  <rect x="520" y="340" width="80" height="60" fill="#34495e" fill-opacity="0.2" stroke="#34495e" stroke-width="1" rx="5"/>
  <text x="560" y="365" text-anchor="middle" font-family="Arial, sans-serif" font-size="11" font-weight="bold" fill="#2c3e50">
    RPA
  </text>
  <text x="560" y="380" text-anchor="middle" font-family="Arial, sans-serif" font-size="9" fill="#2c3e50">
    Prosess-
  </text>
  <text x="560" y="392" text-anchor="middle" font-family="Arial, sans-serif" font-size="9" fill="#2c3e50">
    automatisering
  </text>
  

  <defs>
    <marker id="arrowhead" markerWidth="10" markerHeight="7" refX="9" refY="3.5" orient="auto">
      <polygon points="0 0, 10 3.5, 0 7" fill="#2c3e50"/>
    </marker>
  </defs>
</svg>
